resources/haticons/SVG/slack.svg

<svg height="24" width="24" xmlns="http://www.w3.org/2000/svg"><path d="m5.042 15.165a2.529 2.529 0 0 1 -2.52 2.523 2.528 2.528 0 0 1 -2.522-2.523 2.527 2.527 0 0 1 2.522-2.52h2.52zm1.271 0a2.527 2.527 0 0 1 2.521-2.52 2.527 2.527 0 0 1 2.521 2.52v6.313a2.528 2.528 0 0 1 -2.521 2.522 2.528 2.528 0 0 1 -2.521-2.522zm2.521-10.123a2.529 2.529 0 0 1 -2.521-2.52 2.528 2.528 0 0 1 2.521-2.522 2.528 2.528 0 0 1 2.521 2.522v2.52zm0 1.271a2.528 2.528 0 0 1 2.521 2.521 2.528 2.528 0 0 1 -2.521 2.521h-6.312a2.528 2.528 0 0 1 -2.522-2.521 2.528 2.528 0 0 1 2.522-2.521zm10.122 2.521a2.528 2.528 0 0 1 2.522-2.521 2.528 2.528 0 0 1 2.522 2.521 2.528 2.528 0 0 1 -2.522 2.521h-2.522zm-1.268 0a2.528 2.528 0 0 1 -2.523 2.521 2.527 2.527 0 0 1 -2.52-2.521v-6.312a2.527 2.527 0 0 1 2.52-2.522 2.528 2.528 0 0 1 2.523 2.522zm-2.523 10.122a2.528 2.528 0 0 1 2.523 2.522 2.528 2.528 0 0 1 -2.523 2.522 2.527 2.527 0 0 1 -2.52-2.522v-2.522zm0-1.268a2.527 2.527 0 0 1 -2.52-2.523 2.526 2.526 0 0 1 2.52-2.52h6.313a2.527 2.527 0 0 1 2.522 2.52 2.528 2.528 0 0 1 -2.522 2.523z"/></svg>

<svg xmlns="http://www.w3.org/2000/svg" width="24" height="24"><path d="M5.042 15.165a2.529 2.529 0 0 1-2.52 2.523A2.528 2.528 0 0 1 0 15.165a2.527 2.527 0 0 1 2.522-2.52h2.52v2.52zm1.271 0a2.527 2.527 0 0 1 2.521-2.52 2.527 2.527 0 0 1 2.521 2.52v6.313A2.528 2.528 0 0 1 8.834 24a2.528 2.528 0 0 1-2.521-2.522v-6.313zM8.834 5.042a2.529 2.529 0 0 1-2.521-2.52A2.528 2.528 0 0 1 8.834 0a2.528 2.528 0 0 1 2.521 2.522v2.52H8.834zm0 1.271a2.528 2.528 0 0 1 2.521 2.521 2.528 2.528 0 0 1-2.521 2.521H2.522A2.528 2.528 0 0 1 0 8.834a2.528 2.528 0 0 1 2.522-2.521h6.312zm10.122 2.521a2.528 2.528 0 0 1 2.522-2.521A2.528 2.528 0 0 1 24 8.834a2.528 2.528 0 0 1-2.522 2.521h-2.522V8.834zm-1.268 0a2.528 2.528 0 0 1-2.523 2.521 2.527 2.527 0 0 1-2.52-2.521V2.522A2.527 2.527 0 0 1 15.165 0a2.528 2.528 0 0 1 2.523 2.522v6.312zm-2.523 10.122a2.528 2.528 0 0 1 2.523 2.522A2.528 2.528 0 0 1 15.165 24a2.527 2.527 0 0 1-2.52-2.522v-2.522h2.52zm0-1.268a2.527 2.527 0 0 1-2.52-2.523 2.526 2.526 0 0 1 2.52-2.52h6.313A2.527 2.527 0 0 1 24 15.165a2.528 2.528 0 0 1-2.522 2.523h-6.313z"/></svg>
